X:1
T:Title
%%score { ( 1 2 3 ) | ( 4 5 ) }
L:1/8
Q:1/4=94
M:3/4
K:Bb
V:1 treble nm="Grand Piano"
V:2 treble 
V:3 treble 
V:4 bass 
V:5 bass 
V:1
 z2 z G FG | F2 B2 A2 | z2 z B eG | F6 | z2 z A ce | e2 d2 B2 | c4 z2 | c6 | z2 z G FG | F2 B2 A2 | %10
 z2 z B eG | F6 | d4 z2 | c2 G2 AB | FB c2 A2 | [B,DB]6 | z2 z d [Ad]d | [ce]2 [Ge]2 [Be]2 | %18
 z2 z e [Ae]e | z2 [Fd]4 | z2 z d [=E_d]c | [GB]>c [Bd]2 [Bd]f | z2 z =e [Be]e | z2 z g [df]e | %24
 z2 z d [Ad]d | [ce]2 [Ge]2 [Be]2 | z2 z e [Ae]e | z2 [Fd]4 | [df]4 z2 | [Af]2 [Ge]2 [Ae]e | %30
 [Fd]d [ce]2 [Ae]2 | [Bd]6 |] %32
V:2
 F4 z2 | x6 | G4 z2 | z2 D2 D2 | F4 z2 | x6 | z2 z d cG | z2 E2 E2 | F4 z2 | x6 | G4 z2 | %11
 z2 D2 D2 | z2 z e d=B | x6 | x6 | x6 | [Fd]4 z2 | x6 | [Ae]4 z2 | [Ge]2 z2 [B,D]2 | [^Fd]4 z2 | %21
 x6 | [c=e]4 z2 | [ce]4 z2 | [Fd]4 z2 | x6 | [Ae]4 z2 | [Ge]2 z2 [B,D]2 | z2 z f [Bf]f | x6 | x6 | %31
 x6 |] %32
V:3
 z2 D2 z2 | x6 | z2 E2 z2 | x6 | z2 E2 z2 | x6 | z2 =E2 z2 | x6 | z2 D2 z2 | x6 | z2 E2 z2 | x6 | %12
 z2 =B,2 z2 | x6 | x6 | x6 | z2 [B,D]2 z2 | x6 | z2 [A,E]2 z2 | x6 | z2 [^F,C]2 z2 | x6 | %22
 z2 [B,=E]2 z2 | z2 [A,E]2 z2 | z2 [B,D]2 z2 | x6 | z2 [A,E]2 z2 | x6 | z2 [B,D]2 z2 | x6 | x6 | %31
 x6 |] %32
V:4
 B,,2 [F,B,]2 [F,B,D]2 | D,2 [F,B,D]2 [F,B,D]2 | E,2 [G,B,]2 [G,B,E]2 | B,,2 [F,B,]2 [F,B,]2 | %4
 F,,2 [F,A,]2 [F,A,E]2 | B,,2 [F,B,D]2 [F,B,D]2 | C,2 [G,B,]2 [G,B,=E]2 | F,,2 [F,A,]2 [F,A,]2 | %8
 B,,2 [F,B,]2 [F,B,D]2 | D,2 [F,B,D]2 [F,B,D]2 | E,2 [G,B,]2 [G,B,E]2 | B,,2 [F,B,]2 [F,B,]2 | %12
 G,,2 [F,G,]2 [F,G,=B,]2 | C,2 [E,G,C]2 [=E,G,_D]2 | [F,B,D]2 [F,A,E]2 [F,CE]2 | B,,6 | %16
 B,,2 z[K:treble] G z B | E,,2 [G,B,E]2 [G,B,E]2 | F,,2 z[K:treble] G z G | B,,2 [F,B,D]2 F,2 | %20
 D,,2 z D z ^F | z z/[K:treble] A/ [G,B,D]2 z d | z2 G,2[K:treble] [G,B,=E]2 | %23
 F,,2 z[K:treble] e z c | B,,2 z[K:treble] G z B | E,,2 [G,B,E]2 [G,B,E]2 | %26
 F,,2 z[K:treble] G z G | B,,2 [F,B,D]2 F,2 | B,,2 z[K:treble] c z A | z2 z2[K:treble] [G,B,E]2 | %30
 z B [F,A,E]2 [F,C]2 | [B,,B,]6 |] %32
V:5
 x6 | x6 | x6 | x6 | x6 | x6 | x6 | x6 | x6 | x6 | x6 | x6 | x6 | x6 | x6 | x6 | %16
 z2 F,2[K:treble] [F,B,D]2 | x6 | z2 F,2[K:treble] [F,A,E]2 | x6 | z2 D,2 [D,^F,C]2 | %21
 G,,2[K:treble] z2 [G,B,D]2 | C,,2 z[K:treble] A z G | z2 F,2[K:treble] [F,A,E]2 | %24
 z2 F,2[K:treble] [F,B,D]2 | x6 | z2 F,2[K:treble] [F,A,E]2 | x6 | z2 F,2[K:treble] [F,B,D]2 | %29
 E,,2 [G,B,E]2[K:treble] z B | F,,2 z2 z2 | x6 |] %32

